docs/assets/img/details/mapview/ICON_Bus stops 02.svg

<svg data-name="Layer 1" xmlns="http://www.w3.org/2000/svg" viewBox="0 0 30 30"><path d="M15.14 25.84a12.54 12.54 0 01-5.8-23.67 12.29 12.29 0 0114.29 2.16 12.57 12.57 0 01-5.41 21.08 12.4 12.4 0 01-3.08.43zm-.75-23.19A9.93 9.93 0 0010 3.93a10.71 10.71 0 00-3.77 15.32 10.48 10.48 0 0012.56 4A10.68 10.68 0 0025.3 11c-1.08-4.89-5.37-8.35-10.91-8.35zm1.68 23.51v3.05h-2.14v-3.05z"/><path d="M25.23 13.06a10.41 10.41 0 01-7.91 10.32 10.2 10.2 0 01-11.51-5.52 10.38 10.38 0 015.08-14 10.27 10.27 0 0114.34 9.21zM15 23.31a9.94 9.94 0 009.53-12.71A9.9 9.9 0 0011.8 3.85 10 10 0 0015 23.31z"/><path d="M20.24 13.33v4.7a.62.62 0 01-.69.7h-9.11a.62.62 0 01-.69-.73V8.67A1.14 1.14 0 0111 7.44h8a1.13 1.13 0 011.21 1.23c.04 1.55.03 3.11.03 4.66zM15 14h3.82c.33 0 .41-.09.41-.41V10.4c0-.29-.09-.38-.39-.38h-7.69c-.29 0-.39.09-.39.38v3.19c0 .32.09.41.42.41zm0-4.62h4a.29.29 0 00.26-.27 4.17 4.17 0 000-.5.28.28 0 00-.26-.28h-7.9a.31.31 0 00-.32.33V9c0 .32.09.41.41.41zm-3 8.35a.89.89 0 100-1.78.87.87 0 00-.89.87.89.89 0 00.89.91zm5.92 0a.89.89 0 00.88-.9.87.87 0 00-.8-.83.89.89 0 100 1.78zM17.15 7h-4.27v-.85c0-.28.19-.27.41-.27h3.49a.36.36 0 01.36.35c.01.25.01.5.01.77zm-6.1 12.18H13v1.34c0 .18-.05.23-.23.23h-1.49c-.13 0-.22 0-.22-.18-.01-.46-.01-.91-.01-1.39zm5.95 0h1.93v1.34c0 .18-.05.23-.23.23h-1.46c-.13 0-.23 0-.23-.2zm3.69-6.95v-2h.6a.24.24 0 01.14.17v1.64a.16.16 0 01-.17.16zM9.31 10.26v2h-.59a.16.16 0 01-.16-.17v-1.63a.15.15 0 01.16-.17z"/></svg>

<svg id="Layer_1" data-name="Layer 1" xmlns="http://www.w3.org/2000/svg" viewBox="0 0 30 30"><path d="M15.14,25.84A12.54,12.54,0,0,1,9.34,2.17,12.29,12.29,0,0,1,23.63,4.33a12.57,12.57,0,0,1-5.41,21.08A12.4,12.4,0,0,1,15.14,25.84ZM14.39,2.65A9.93,9.93,0,0,0,10,3.93,10.71,10.71,0,0,0,6.23,19.25a10.48,10.48,0,0,0,12.56,4A10.68,10.68,0,0,0,25.3,11C24.22,6.11,19.93,2.65,14.39,2.65Z"/><path d="M16.07,26.16v3.05H13.93V26.16Z"/><path d="M25.23,13.06a10.41,10.41,0,0,1-7.91,10.32A10.2,10.2,0,0,1,5.81,17.86a10.38,10.38,0,0,1,5.08-14,10.27,10.27,0,0,1,14.34,9.21ZM15,23.31A9.94,9.94,0,0,0,24.53,10.6,9.9,9.9,0,0,0,11.8,3.85,10,10,0,0,0,15,23.31Z"/><path d="M20.24,13.33c0,1.57,0,3.14,0,4.7a.62.62,0,0,1-.69.7H10.44A.62.62,0,0,1,9.75,18V8.67A1.14,1.14,0,0,1,11,7.44H19a1.13,1.13,0,0,1,1.21,1.23C20.25,10.22,20.24,11.78,20.24,13.33ZM15,14h3.82c.33,0,.41-.09.41-.41,0-1.06,0-2.13,0-3.19,0-.29-.09-.38-.39-.38H11.15c-.29,0-.39.09-.39.38v3.19c0,.32.09.41.42.41Zm0-4.62h4a.29.29,0,0,0,.26-.27,4.17,4.17,0,0,0,0-.5A.28.28,0,0,0,19,8.33h-7.9a.31.31,0,0,0-.32.33V9c0,.32.09.41.41.41Zm-3,8.35a.89.89,0,1,0,0-1.78.87.87,0,0,0-.89.87A.89.89,0,0,0,12,17.73Zm5.92,0a.89.89,0,0,0,.88-.9A.87.87,0,0,0,18,16a.89.89,0,1,0,0,1.78Z"/><path d="M17.15,7H12.88c0-.28,0-.57,0-.85s.19-.27.41-.27h3.49a.36.36,0,0,1,.36.35C17.15,6.48,17.15,6.73,17.15,7Z"/><path d="M11.05,19.18H13s0,.07,0,.11v1.23c0,.18-.05.23-.23.23H11.28c-.13,0-.22,0-.22-.18C11.05,20.11,11.05,19.66,11.05,19.18Z"/><path d="M17,19.18h1.93v1.34c0,.18-.05.23-.23.23H17.24c-.13,0-.23,0-.23-.2Z"/><path d="M20.69,12.23v-2c.2,0,.4,0,.6,0a.24.24,0,0,1,.14.17c0,.54,0,1.09,0,1.64a.16.16,0,0,1-.17.16Z"/><path d="M9.31,10.26v2H8.72a.16.16,0,0,1-.16-.17c0-.54,0-1.08,0-1.63a.15.15,0,0,1,.16-.17Z"/></svg>
